X: 38436
T: Starry Nights Of Shetland, The
R: waltz
M: 3/4
K: Dmajor
A2|f4 d2|A3 B A2|G4 B2|c4 B2|A4 c2|e4 A2|f6-|f2 d2 e2|
f4 d2|A2 (3BcB A2|G4 B2|c4 B2|A3 c ef|g2 (3BcB c2|d3 e d2|d4||
ef|g3 B g2|g2 B2 g2|f3 A f2|f2 A2 f2|f2 de fd|(3aba (3gag f2|e3 f e^d|e4 A2|
f4 d2|A2 B2 (3ABA|G4 B2|c4- cB|A2 Ac ef|g2 B2 c2|d2 de dc|d4||

